X: 713
T: Courting Them All
R: reel
%S: s:2 b:11(5+6)
B: Francis O'Neill: "The Dance Music of Ireland" (1907) #713
Z: Frank Nordberg - http://www.musicaviva.com
F: http://www.musicaviva.com/abc/tunes/ireland/oneill-1001/0713/oneill-1001-0713-1.abc
M: C|
L: 1/8
K: D
F "^A"|: DF (3(ABc) d2(3(ABc) | d2(fd) ecAc | d2(Ac) BAGF | EFGE [1 FDDE :|[2 FDD |]
"^B"|: c | d2(fd) (3(fga) (fd) | g2bg ecAc |[1 d2fd (3(fga) fd | efge fdd :| d2(Ac) BAGF | EFGE FDD2 |]
